X:191
T:Valeshot 
C:Arr. Will Patton
N:
L:1/8
Q:1/4=150
M:3/4
K:C
z6 | CF C^D =D^D | CF C^D =D^D | CF C^D =D2 | z6 | F_B F^G =G2 | F_B F^G =G2 | 
F_B F^G =G2 | z6 |: _B2 FG AB | zd df g_b | ag fg a2 | z4 gf | ^df ga g2 | z2 ag f^d | 
d^d f4 | z2 ^FG gf | ^d=d c_B ^d2 | z2 ^F_B cB | d4 ^d2 | z2 d^d BG | d2 d2 _BG | 
cd ^df =dA | c_B BA B2 | z6 :| 


